X:1
T:Title
%%score { ( 1 3 ) | ( 2 4 ) }
L:1/8
Q:1/4=95
M:6/8
K:Db
V:1 treble nm="Grand Piano"
V:3 treble 
V:2 bass 
V:4 bass 
V:1
 FFF [FA]2 [FA] | [FB]3 [FA]3 | DFA [Fd]2 [FB] | [Gc]6 | GGG B2 B | c3 B3 | cBA G2 E | A6 | %8
w: T.~B.~Mosley * * * *||||||||
 FFF [FA]2 [FA] | [FB]3 [FA]3 | DFA [Fd]2 [Ad] | [Gd]6 | [=Gd][Gd][Gd] [Ec]2 [EB] | [Ee]3 [Fc]3 | %14
w: ||||||
 [Fd][Fe][_Fd] [Ec]2 [DB] | A6 | [Fd]dd [Fd]2 [FB] | [Gd]3 [Gc]3 | ccc [EGc]2 [CGA] | B3 z3 | %20
w: ||||||
 [A,DF][A,DF][B,=DF] [B,EG]2 [B,E=G] | [A,EA]3 [EB]3 | [Ec][Ec]c d2 =d | e6 | [Af]ed [DFB]2 [Fe] | %25
w: |||||
 [Gd]3 [Gc]3 | edc [CGB]2 [CGc] | B3 z3 | [DF][DF][=DF] G2 =G | A3 B3 | cd=d e2 [F_d] | [Fd]6 |] %32
w: |||||||
V:2
 [D,A,D][D,A,D][D,A,D] [D,D]2 [D,D] | [D,D]3 [D,D]3 | D,F,A, [D,A,]2 [D,A,] | [E,A,]6 | %4
 [A,CE][A,CE][A,CE] [A,CG]2 [A,CG] | [A,EG]3 [A,CG]3 | [A,EG][A,CG][A,DF][K:bass] [A,E]2 [G,A,C] | %7
 [F,A,D]2 [E,C] .[D,D]3 | [D,A,D][D,A,D][D,A,D] [D,D]2 [D,D] | [D,D]3 [D,D]3 | %10
 D,F,A, [D,A,]2 [F,_C] | [G,B,]6 | [E,B,][E,B,][E,B,] [E,=G,]2 [D,G,] | [C,A,]3 [F,=A,]3 | %14
 [B,,B,][B,,B,][B,,B,] [E,=G,]2 [E,G,] | z3 .C3 | z[K:treble] FF[K:bass] [D,A,]2 [D,A,] | %17
 [E,A,]2 E, A,2 A, | [A,EG]3 A,,2 B,, | D,2 D, .D,3 | D,D,B,, E,2 D, | C,3 [B,,=G,]3 | %22
 [A,,A,][A,,A,][K:treble][A,G] [A,B,F]2 [A,_CF] | [A,CG]6 | z[K:treble] GF[K:bass] D,2 [D,A,] | %25
 [E,A,]2 E, A,2 A, | [A,CG]3 A,2[K:bass] A,, | D,2 D, .[D,D]3 | %28
 [D,A,][D,A,][B,,B,] [E,B,E]2 [_F,B,D] | [F,D]3[K:treble] [G,DG]3 | %30
 [A,G][A,B,F][A,_CF][K:bass] [A,,=CG]2 [D,A,] | [D,A,]6 |] %32
V:3
 x6 | x6 | x6 | x6 | x6 | x6 | x6 | z2 G .F3 | x6 | x6 | x6 | x6 | x6 | x6 | x6 | [A,C]3 .G3 | x6 | %17
 z2 A, E2 E | x6 | [DF]2 [DF] .[DFA]3 | x6 | x6 | x6 | x6 | x6 | z2 A, E2 E | x6 | %27
 [DF]2 [DF] .[FA]3 | x6 | x6 | x6 | x6 |] %32
V:4
 x6 | x6 | x6 | x6 | x6 | x6 | x3[K:bass] x3 | x6 | x6 | x6 | x6 | x6 | x6 | x6 | x6 | A,,6 | %16
 [D,A,]3[K:treble][K:bass] z3 | x6 | x6 | x6 | x6 | x6 | x2[K:treble] x4 | x6 | %24
 [D,D]3[K:treble][K:bass] z3 | x6 | x5[K:bass] x | x6 | x6 | x3[K:treble] x3 | x3[K:bass] x3 | %31
 x6 |] %32

